lib/flags/in-india.svg

<svg xmlns="http://www.w3.org/2000/svg" fill="none" aria-hidden="true" viewBox="0 0 42 30"><g id="Country=IN - India, Size=sm (36x24)" filter="url(#filter0_dd_91_27554)"><g clip-path="url(#clip0_91_27554)"><g id="flag"><mask id="mask0_91_27554" width="36" height="24" x="3" y="2" maskUnits="userSpaceOnUse" style="mask-type:alpha"><rect id="mask" width="36" height="24" x="3" y="2" fill="white"/></mask><g mask="url(#mask0_91_27554)"><g id="contents"><path id="background" fill="#F7FCFF" fill-rule="evenodd" d="M3 2V26H39V2H3Z" clip-rule="evenodd"/><mask id="mask1_91_27554" width="36" height="24" x="3" y="2" maskUnits="userSpaceOnUse" style="mask-type:alpha"><path id="background_2" fill="white" fill-rule="evenodd" d="M3 2V26H39V2H3Z" clip-rule="evenodd"/></mask><g mask="url(#mask1_91_27554)"><path id="top" fill="#FF8C1A" fill-rule="evenodd" d="M3 2V10H39V2H3Z" clip-rule="evenodd"/><path id="bottom" fill="#5EAA22" fill-rule="evenodd" d="M3 18V26H39V18H3Z" clip-rule="evenodd"/><g id="mark"><path id="Oval 23" fill="#3D58DB" fill-rule="evenodd" d="M16.5 14C16.5 16.2091 18.5147 18 21 18C23.4853 18 25.5 16.2091 25.5 14C25.5 11.7909 23.4853 10 21 10C18.5147 10 16.5 11.7909 16.5 14ZM24.375 14C24.375 15.6569 22.864 17 21 17C19.136 17 17.625 15.6569 17.625 14C17.625 12.3431 19.136 11 21 11C22.864 11 24.375 12.3431 24.375 14Z" clip-rule="evenodd"/><path id="Star 12" fill="#3D58DB" fill-rule="evenodd" d="M20.9941 14.8607L20.3519 17.9813L20.7248 14.8263L19.1195 17.6596L20.4773 14.7258L18.039 17.0424L20.2717 14.5675L17.198 16.1796L20.1246 14.364L16.6644 15.1411L20.0479 14.132L16.4816 14.011L20.0479 13.8901L16.6644 12.881L20.1246 13.6581L17.198 11.8425L20.2717 13.4546L18.039 10.9797L20.4773 13.2963L19.1195 10.3625L20.7248 13.1958L20.3519 10.0408L20.9941 13.1614L21.6362 10.0408L21.2634 13.1958L22.8686 10.3625L21.5108 13.2963L23.9491 10.9797L21.7165 13.4546L24.7902 11.8425L21.8635 13.6581L25.3237 12.881L21.9402 13.8901L25.5065 14.011L21.9402 14.132L25.3237 15.1411L21.8635 14.364L24.7902 16.1796L21.7165 14.5675L23.9491 17.0424L21.5108 14.7258L22.8686 17.6596L21.2634 14.8263L21.6362 17.9813L20.9941 14.8607Z" clip-rule="evenodd"/></g></g></g></g></g></g></g><defs><filter id="filter0_dd_91_27554" width="42" height="30" x="0" y="0" color-interpolation-filters="sRGB" filterUnits="userSpaceOnUse"><feFlood flood-opacity="0" result="BackgroundImageFix"/><feColorMatrix in="SourceAlpha" result="hardAlpha" values="0 0 0 0 0 0 0 0 0 0 0 0 0 0 0 0 0 0 127 0"/><feOffset dy="1"/><feGaussianBlur stdDeviation="1"/><feColorMatrix values="0 0 0 0 0.0627451 0 0 0 0 0.0941176 0 0 0 0 0.156863 0 0 0 0.06 0"/><feBlend in2="BackgroundImageFix" result="effect1_dropShadow_91_27554"/><feColorMatrix in="SourceAlpha" result="hardAlpha" values="0 0 0 0 0 0 0 0 0 0 0 0 0 0 0 0 0 0 127 0"/><feOffset dy="1"/><feGaussianBlur stdDeviation="1.5"/><feColorMatrix values="0 0 0 0 0.0627451 0 0 0 0 0.0941176 0 0 0 0 0.156863 0 0 0 0.1 0"/><feBlend in2="effect1_dropShadow_91_27554" result="effect2_dropShadow_91_27554"/><feBlend in="SourceGraphic" in2="effect2_dropShadow_91_27554" result="shape"/></filter><clipPath id="clip0_91_27554"><rect width="36" height="24" x="3" y="2" fill="white" rx="2"/></clipPath></defs></svg>

<svg xmlns="http://www.w3.org/2000/svg" fill="none" aria-hidden="true" viewBox="0 0 42 30"><g filter="url(#a)"><g clip-path="url(#b)"><mask id="c" width="36" height="24" x="3" y="2" maskUnits="userSpaceOnUse" style="mask-type:alpha"><path fill="#fff" d="M3 2h36v24H3z"/></mask><g mask="url(#c)"><path fill="#F7FCFF" fill-rule="evenodd" d="M3 2v24h36V2H3Z" clip-rule="evenodd"/><mask id="d" width="36" height="24" x="3" y="2" maskUnits="userSpaceOnUse" style="mask-type:alpha"><path fill="#fff" fill-rule="evenodd" d="M3 2v24h36V2H3Z" clip-rule="evenodd"/></mask><g fill-rule="evenodd" clip-rule="evenodd" mask="url(#d)"><path fill="#FF8C1A" d="M3 2v8h36V2H3Z"/><path fill="#5EAA22" d="M3 18v8h36v-8H3Z"/><g fill="#3D58DB"><path d="M16.5 14c0 2.21 2.015 4 4.5 4s4.5-1.79 4.5-4-2.015-4-4.5-4-4.5 1.79-4.5 4Zm7.875 0c0 1.657-1.511 3-3.375 3s-3.375-1.343-3.375-3 1.511-3 3.375-3 3.375 1.343 3.375 3Z"/><path d="m20.994 14.86-.642 3.121.373-3.155-1.606 2.834 1.358-2.934-2.438 2.316 2.233-2.475-3.074 1.613 2.927-1.816-3.46.777 3.383-1.009-3.566-.121 3.566-.12-3.384-1.01 3.46.777-2.926-1.816 3.074 1.613-2.233-2.475 2.438 2.316-1.358-2.933 1.606 2.833-.373-3.155.642 3.12.642-3.12-.373 3.155 1.606-2.833-1.358 2.933 2.438-2.316-2.233 2.475 3.074-1.613-2.927 1.816 3.46-.777-3.383 1.01 3.566.12-3.566.121 3.384 1.01-3.46-.778 2.926 1.816-3.073-1.612 2.232 2.474-2.438-2.316 1.358 2.934-1.606-2.834.373 3.155-.642-3.12Z"/></g></g></g></g></g><defs><clipPath id="b"><rect width="36" height="24" x="3" y="2" fill="#fff" rx="2"/></clipPath><filter id="a" width="42" height="30" x="0" y="0" color-interpolation-filters="sRGB" filterUnits="userSpaceOnUse"><feFlood flood-opacity="0" result="BackgroundImageFix"/><feColorMatrix in="SourceAlpha" result="hardAlpha" values="0 0 0 0 0 0 0 0 0 0 0 0 0 0 0 0 0 0 127 0"/><feOffset dy="1"/><feGaussianBlur stdDeviation="1"/><feColorMatrix values="0 0 0 0 0.0627451 0 0 0 0 0.0941176 0 0 0 0 0.156863 0 0 0 0.06 0"/><feBlend in2="BackgroundImageFix" result="effect1_dropShadow_91_27554"/><feColorMatrix in="SourceAlpha" result="hardAlpha" values="0 0 0 0 0 0 0 0 0 0 0 0 0 0 0 0 0 0 127 0"/><feOffset dy="1"/><feGaussianBlur stdDeviation="1.5"/><feColorMatrix values="0 0 0 0 0.0627451 0 0 0 0 0.0941176 0 0 0 0 0.156863 0 0 0 0.1 0"/><feBlend in2="effect1_dropShadow_91_27554" result="effect2_dropShadow_91_27554"/><feBlend in="SourceGraphic" in2="effect2_dropShadow_91_27554" result="shape"/></filter></defs></svg>
